X: 9
M:3/4
L:1/8
K:G
(3efg BGTB2 | Gggage | (3efg BGTB2 |
(3efg BGTB2 | A/B/c/d/ e/f/g/e/ fd :: (3efg  dgBg |
(3efg  dgBg | A/B/c/d/ e/f/g/a/ fd |
(3efg  dgBg | A/B/c/d/ e/f/g/e/ fd :|


